X: 315
T: Saint Anne's Reel [1]
B: canberra pickers and fiddlers
B: tunes
M:C|
L:1/8
R: reel
Q: 1/4=100
K:D
V:1 
|: "D"f2fg fedB | A2AF DFA2 | "G"B2BG DGB2 | "D"A2{B}AF DFAd | "D"f2fg fedB |
A2AF DFA2 | "G"BGBd "A7"cAce | dfec "D"d4 :: "D"fdAd fdfa | "Em"aggf g2ef | "A7"gfec Aceg |
baa^g "(D)"a2a=g | "D"fdAd fdfa | "Em"aggf g2ef | "A7"gfec Aceg | "D"fd"A7"ec "D"d4 :|
% abcbook-tune_id 63da5934ce123949713c4bc1
% abcbook-tune_composer_id 
% abcbook-link-0 https://www.youtube.com/watch?v=AXRD-Rj23Ao
% abcbook-link-start-at-0 22
% abcbook-link-end-at-0 218
% abcbook-boost 0
% abcbook-difficulty 0
% abcbook-tags canberra pickers and fiddlers,old time tunes,© free
% abcbook-tablature 
% abcbook-transpose 
% abcbook-tuning ADAE
% abcbook-lastupdated 1677374961129
% abcbook-src-url https://tunebook.net/scrape/tunes.abc
% abcbook-soundfonts 
% abcbook-repeats 1
%%gchordfont "itim-music,Itim" 20

